public/icons/svgs/solid/ring.svg

<svg xmlns="http://www.w3.org/2000/svg" viewBox="0 0 512 512"><!--! Font Awesome Free 7.0.0 by @fontawesome - https://fontawesome.com License - https://fontawesome.com/license/free (Icons: CC BY 4.0, Fonts: SIL OFL 1.1, Code: MIT License) Copyright 2025 Fonticons, Inc. --><path fill="currentColor" d="M64 208c0 7.8 4.4 18.7 17.1 30.3 45.4-24.2 107.7-38.3 174.9-38.3s129.5 14.1 174.9 38.3c12.8-11.6 17.1-22.5 17.1-30.3 0-12.3-10.8-32-47.9-50.6-35.2-17.6-86.1-29.4-144.1-29.4s-108.9 11.8-144.1 29.4C74.8 176 64 195.7 64 208zm192 40c-47 0-89.3 7.6-122.9 19.7 33.2 12.4 75.7 20.3 122.9 20.3s89.7-7.8 122.9-20.3C345.3 255.6 303 248 256 248zM0 208C0 158.4 39.4 122.2 83.3 100.2 129.1 77.3 190.3 64 256 64s126.9 13.3 172.7 36.2c43.9 22 83.3 58.2 83.3 107.8l0 96c0 49.6-39.4 85.8-83.3 107.8-45.9 22.9-107 36.2-172.7 36.2S129.1 434.7 83.3 411.8C39.4 389.8 0 353.6 0 304l0-96z"/></svg>

<svg xmlns="http://www.w3.org/2000/svg" viewBox="0 0 512 512"><!--! Font Awesome Free 6.2.0 by @fontawesome - https://fontawesome.com License - https://fontawesome.com/license/free (Icons: CC BY 4.0, Fonts: SIL OFL 1.1, Code: MIT License) Copyright 2022 Fonticons, Inc. --><path d="M64 208c0 7.8 4.4 18.7 17.1 30.3C126.5 214.1 188.9 200 256 200s129.5 14.1 174.9 38.3C443.6 226.7 448 215.8 448 208c0-12.3-10.8-32-47.9-50.6C364.9 139.8 314 128 256 128s-108.9 11.8-144.1 29.4C74.8 176 64 195.7 64 208zm192 40c-47 0-89.3 7.6-122.9 19.7C166.3 280.2 208.8 288 256 288s89.7-7.8 122.9-20.3C345.3 255.6 303 248 256 248zM0 208c0-49.6 39.4-85.8 83.3-107.8C129.1 77.3 190.3 64 256 64s126.9 13.3 172.7 36.2c43.9 22 83.3 58.2 83.3 107.8v96c0 49.6-39.4 85.8-83.3 107.8C382.9 434.7 321.7 448 256 448s-126.9-13.3-172.7-36.2C39.4 389.8 0 353.6 0 304V208z"/></svg>
